X: 59
T: Motet cycle Ave mundi domina &mdash; 8. Fit porta Christi pervia
C: Gaspar van Weerbeke
%%abc-version 2.0
%%abcx-abcm2ps-target-version 5.9.1 (29 Sep 2008)
%%abc-creator hum2abc beta
%%abcx-conversion-date 2022/03/06 13:05:55
%%abc-copyright Copyright 2021, Pavanello, Agnese
%%abc-edited-by Sapp, Craig Stuart
%%abc-edited-by Wissmann, Rolf
%%humdrum-veritas 1049472034
%%humdrum-veritas-data 1632960535
%%linebreak <none>
%%barnumbers 0
L: 1/4
M: C|
N: Derived from Gas0301h-Ave_mundi_domina-Fit_porta_Christi_pervia.krn
Q: 1/2=168
%%staves [1 2 3 4]
V: 1 clef=treble
V: 2 clef=treble-8
V: 3 clef=treble-8
V: 4 clef=bass
K: F
[V:1] G4D2G2 | 
[V:2] z8 | 
[V:3] z8 | 
[V:4] z8 | 
[V:1] G2G2A2G2 | 
[V:2] z8 | 
[V:3] G4D2G2 | 
[V:4] z8 | 
[V:1] E2G4^F2 | 
[V:2] z8 | 
[V:3] G2G2A2A2 | 
[V:4] z8 | 
[V:1] G4z4 | 
[V:2] d2>e2f2e2 | 
[V:3] G4z4 | 
[V:4] G,4D,2G,2 | 
[V:1] z8 | 
[V:2] d2g2^f2^f2 | 
[V:3] z8 | 
[V:4] G,2G,2A,2A,2 | 
[V:1] z4A2B2 | 
[V:2] g2d2c2d2 | 
[V:3] z8 | 
[V:4] G,2B,2A,2G,2 | 
[V:1] c2B2A2G2 | 
[V:2] f2d2c2g2 | 
[V:3] A2B2c2B2 | 
[V:4] F,2G,2A,2_E,2 | 
[V:1] A2B2AGFE | 
[V:2] f2e2f3e | 
[V:3] A2G2c2d2 | 
[V:4] F,2G,2F,2D,2 | 
[V:1] D2G4^F2 | 
[V:2] d2c2d4 | 
[V:3] B2G2A4 | 
[V:4] G,2_E,2D,4 | 
[V:1] G4z2G2 | 
[V:2] d2d2>d2d2 | 
[V:3] G8 | 
[V:4] G,,2G,,2B,,3C, | 
[V:1] B2>c2d4 | 
[V:2] z8 | 
[V:3] z2G2B3c | 
[V:4] D,2E,2D,2G,2 | 
[V:1] d2>c2B2A2- | 
[V:2] f4g2f2- | 
[V:3] d4d4 | 
[V:4] D,4G,,2F,2- | 
[V:1] A2G4^F2 | 
[V:2] f2d6 | 
[V:3] c2B2A4 | 
[V:4] F,2G,2D,4 | 
[V:1] G2G2D2G2 | 
[V:2] B2B2B2c2 | 
[V:3] G4z4 | 
[V:4] G,,2G,2G,2C,2 | 
[V:1] G2G2A2G2 | 
[V:2] B2G2F2G2 | 
[V:3] G2G2D2G2 | 
[V:4] G,2B,2A,2B,2 | 
[V:1] E2G4^F2 | 
[V:2] B2c2d4 | 
[V:3] G2G2A2A2 | 
[V:4] G,2E,2D,4 | 
[V:1] G8 | 
[V:2] z8 | 
[V:3] G4z4 | 
[V:4] (3:2:5_E,2>D,2B,,2C,2A,,2 | 
[V:1] z8 | 
[V:2] z8 | 
[V:3] (3:2:4G2D2G2G2 | 
[V:4] (3:2:6G,,2>A,,2B,,2C,2>D,2_E,2 | 
[V:1] z8 | 
[V:2] z8 | 
[V:3] (3:2:4A2G2E2^F2 | 
[V:4] (3:2:4D,2B,,2C,2A,,2 | 
[V:1] G4(3:2:2A2B2 | 
[V:2] d4(3:2:2c2B2 | 
[V:3] G4z4 | 
[V:4] G,,4z4 | 
[V:1] (3:2:4c2B2A2G2 | 
[V:2] (3:2:4A2G2c2B2 | 
[V:3] z8 | 
[V:4] z8 | 
[V:1] (3:2:4A2G2E2^F2 | 
[V:2] (3:2:5A2d2B2c2A2 | 
[V:3] z8 | 
[V:4] z8 | 
[V:1] G4z4 | 
[V:2] G4z4 | 
[V:3] z4G4 | 
[V:4] G,,4(3:2:2B,,2C,2 | 
[V:1] z8 | 
[V:2] z8 | 
[V:3] (3:2:4B2c2d2d2 | 
[V:4] (3:2:5D,2_E,2D,2>=E,2F,2 | 
[V:1] z8 | 
[V:2] z8 | 
[V:3] (3:2:4d2c2B2A2 | 
[V:4] (3:2:5G,2B,2A,2G,2^F,2 | 
[V:1] (3:2:4G2D2G2A2 | 
[V:2] z8 | 
[V:3] (3:2:4G2z2G2D2 | 
[V:4] (3:2:2G,2z2z4 | 
[V:1] (3:2:5G2E2D2G2^F2 | 
[V:2] z8 | 
[V:3] (3:2:4G2B2-B2A2 | 
[V:4] z8 | 
[V:1] (3:2:6G2>A2B2A2>B2c2 | 
[V:2] (3:2:4d2d2f2f2 | 
[V:3] (3G2d2c2 | 
[V:4] (3:2:5G,,2G,2F,2D,2A,2 | 
[V:1] (3:2:6B2>A2G2^F2>E2F2 | 
[V:2] (3:2:4g2d2-d2d2 | 
[V:3] (3:2:4d2>c2B2A2 | 
[V:4] (3:2:6G,2>D,2_E,2D,2>=E,2D,2 | 
[V:1] G4z2G2 | 
[V:2] d4z2G2 | 
[V:3] G8 | 
[V:4] G,,4z4 | 
[V:1] G2G2F2G2 | 
[V:2] B2c2d2e2 | 
[V:3] z8 | 
[V:4] z8 | 
[V:1] A2>G2FDE2 | 
[V:2] f2>e2dBc2 | 
[V:3] z8 | 
[V:4] z8 | 
[V:1] D4z4 | 
[V:2] d4z4 | 
[V:3] z4z2d2 | 
[V:4] D,4D,2D,2 | 
[V:1] z8 | 
[V:2] z8 | 
[V:3] d2d2d3c | 
[V:4] F,2F,2F,3E, | 
[V:1] z4z2B2 | 
[V:2] z4f2d2 | 
[V:3] B2A2B2B2 | 
[V:4] D,2C,2B,,2G,2 | 
[V:1] A2c2B3A | 
[V:2] f2f2g4 | 
[V:3] c2c2d3c | 
[V:4] F,2A,2G,3G, | 
[V:1] G2F2G2c2- | 
[V:2] d2d2d2_e2 | 
[V:3] B2A2G2G2 | 
[V:4] G,2D,2G,,2C,2 | 
[V:1] cBG2A2G2- | 
[V:2] c2c2_e2_e2 | 
[V:3] G2G2c2B2 | 
[V:4] C,2>C,2C,2_E,2 | 
[V:1] G2F4E2 | 
[V:2] c2c2c4 | 
[V:3] A2A2G2-G2 | 
[V:4] F,2F,2C,4 | 
[V:1] F4z2F2 | 
[V:2] z8 | 
[V:3] F4B2A2 | 
[V:4] z8 | 
[V:1] B2A2B2c2 | 
[V:2] z8 | 
[V:3] B2c2d2_e2 | 
[V:4] z8 | 
[V:1] F2B4A2 | 
[V:2] z8 | 
[V:3] d2B2c4 | 
[V:4] z8 | 
[V:1] B4z4 | 
[V:2] z2d2f3_e | 
[V:3] B4z4 | 
[V:4] z4z2D,2 | 
[V:1] z8 | 
[V:2] d2c2B2c2 | 
[V:3] z8 | 
[V:4] F,2>_E,2D,2C,2 | 
[V:1] z8 | 
[V:2] F2B4A2 | 
[V:3] z8 | 
[V:4] B,,4C,4 | 
[V:1] z8 | 
[V:2] B2B2d3e | 
[V:3] z8 | 
[V:4] B,,4z2B,,2 | 
[V:1] z8 | 
[V:2] f2f2c3d | 
[V:3] z8 | 
[V:4] D,2>E,2F,2F,2 | 
[V:1] z8 | 
[V:2] efg4e2- | 
[V:3] z8 | 
[V:4] C,2>D,2E,F,G,2 | 
[V:1] z8 | 
[V:2] e2d4^c2 | 
[V:3] z8 | 
[V:4] D,2F,2E,4 | 
[V:1] z4z2d2 | 
[V:2] d4z2d2 | 
[V:3] z2d2d3c | 
[V:4] D,8 | 
[V:1] d2>c2B2A2 | 
[V:2] f2f2d2f2 | 
[V:3] B2A2G2F2 | 
[V:4] z2F,2G,2D,2 | 
[V:1] G2F2B2A2- | 
[V:2] d2>c2f2f2- | 
[V:3] B2A2d2c2- | 
[V:4] G,2D,2B,,2F,2- | 
[V:1] A2G4^F2 | 
[V:2] f_ec2d4 | 
[V:3] cBG2A4 | 
[V:4] F,G,_E,2D,4 | 
[V:1] (3:2:5G2z2c2A2c2 | 
[V:2] z8 | 
[V:3] G4A4 | 
[V:4] z8 | 
[V:1] (3:2:5B2G2B2A2G2 | 
[V:2] z8 | 
[V:3] G4(3:2:2F2G2 | 
[V:4] z8 | 
[V:1] (3:2:4E2F2G2F2 | 
[V:2] z8 | 
[V:3] (3:2:4A2F2E2F2 | 
[V:4] z8 | 
[V:1] (3:2:4D2G2G2^F2 | 
[V:2] z8 | 
[V:3] (3:2:4G2B2c2A2 | 
[V:4] z8 | 
[V:1] G4z4 | 
[V:2] (3:2:6d2e2f2>e2 d c | 
[V:3] G4z4 | 
[V:4] G,4F,4 | 
[V:1] z8 | 
[V:2] (3:2:6B2>A2G2F2>G2A2 | 
[V:3] z8 | 
[V:4] G,4D,4 | 
[V:1] z8 | 
[V:2] (3:2:4B2A2B2c2 | 
[V:3] z8 | 
[V:4] (3:2:5G,2F,2G,2D,2E,2 | 
[V:1] z8 | 
[V:2] (3:2:4d2c2B2A2 | 
[V:3] z8 | 
[V:4] (3F,2>D,4C,2 | 
[V:1] (3:2:4B2A2F2G2 | 
[V:2] (3:2:2B2z2z4 | 
[V:3] (3:2:4d2c2A2B2 | 
[V:4] (3:2:2B,,2z2z4 | 
[V:1] (3:2:4B2c2A2G2 | 
[V:2] z8 | 
[V:3] (3:2:4G2A2F2G2 | 
[V:4] z8 | 
[V:1] (3:2:4A2>B4G2A2 | 
[V:2] (3:2:4f2>d4g2_e2 | 
[V:3] (3:2:4c2>d4B2c2 | 
[V:4] (3:2:4F,2>B,,4_E,2C,2 | 
[V:1] (3:2:5F2A2G2B2A2 | 
[V:2] (3:2:4d2d2_e2f2 | 
[V:3] (3:2:4A2>B4G2A2 | 
[V:4] (3:2:5D,2F,2_E,2G,2F,2 | 
[V:1] (3:2:5c2A2B2A2G2 | 
[V:2] (3:2:4f2>d4d2c2 | 
[V:3] (3:2:4F2>G4F2G2 | 
[V:4] (3:2:5A,2D,2G,2D,2_E,2 | 
[V:1] (3:2:4F2>G4F2G2 | 
[V:2] (3:2:4d2>e4d2e2 | 
[V:3] (3:2:4A2>B4A2B2 | 
[V:4] (3:2:4D,2>G,4D,2G,2 | 
[V:1] (3:2:5A2G2^F2>E2F2 | 
[V:2] (3f2c2d2 | 
[V:3] (3:2:4c2G2A2A2 | 
[V:4] (3:2:5F,2E,2D,2>E,2D,2 | 
[V:1] G8 |]  
[V:2] d8 |]  
[V:3] G8 |]  
[V:4] G,,8 |]  


